X: 24119
T: Longford Collector, The
R: reel
M: 4/4
K: Gmajor
|G3A Bcdg|eB B2 eBdB|G3A B2dB|AcBA GEDE|
G3A BABd|eB B2 d2ef|gbaf gedB|AcBA GEDE|
GFGA BABd|eB B2 eBdB|G3A BcdB|AcBA GEDE|
G3A Bcdg|eB B2 d2ef|g3f gedB|AcBA GEED||
g3f gedg|eB B2 d2ef|g2af gedB|AcBA GEDE|
g3f gedg|eB B2 d2ef|gbaf gedB|AcBA GE D2|
gfga gedg|eB B2 d2 ef|gbaf gedB|AcBA GEDE|
g3f gedg|eB B2 d2 ef|gbaf gedB|AcBA GE D2||

